!!!OTL: FALL HEREIN FALL HEREIN DU KUEHLER TAU
!!!ARE: Europa, Mitteleuropa, Deutschland
!!!SCT: E0447A
!!!YEM: Copyright 1995, estate of Helmut Schaffrath.
**kern
*ICvox
*Ivox
*M2/4
*k[f#c#g#]
*A:
=1
{8a
8f#
4f#
=2
8a
8f#
4f#}
=3
{4a
8.b
16a
=4
4f#
8r}
{16a
16b
=5
8a
8gn
8e
8gn
=6
4f#
8r}
{8f#
=7
8e
8e
16e
16a
8a
=8
8a
8cc#
8cc#}
{8cc#
=9
8b
8b
16ee
16dd
8b
=10
4a
4r}
==
!!!AGN: Liebes - Lied
!!!ONB: ESAC (Essen Associative Code) Database: ERK1
!!!AMT: simple duple
!!!AIN: vox
!!!EED: Helmut Schaffrath
!!!EEV: 1.0
*-
